!!!OTL: Jahreszeiten und Liebe
!!!ARE: Europa, Mitteleuropa, Deutschland
!!!SCT: A0151A
!!!YEM: Copyright 1995, estate of Helmut Schaffrath.
**kern
*ICvox
*Ivox
*M3/2
*k[b-e-]
*g:
{2g
=1
1g
2g
=2
1dd
2dd
=3
2.dd
4cc
2b-
=4
1a}
{2g
=5
1cc
2cc
=6
1dd
2cc
=7
2b-
1a
=8
1g}
{2g
=9
1a
2a
=10
1a
2cc
=11
1b-
2a
=12
1g}
{2b-
=13
1a
2g
=14
1f#
2g
=15
1a
2a
=16
1dd
2cc
=17
2b-
1a
=18
1g}
==
!!!AGN: Romanze, Ballade, Lied
!! Praetorius, Mus. Sion. VII. 1609 No. 239
!!!ONB: ESAC (Essen Associative Code) Database: ALTDEU
!!!AMT: simple triple
!!!AIN: vox
!!!EED: Helmut Schaffrath
!!!EEV: 1.0
*-
